X:144
T:Medyatsiner Walz
O:klezmer
M:3/4
L:1/8
Q:1/4=
K:Am
V:1
E2 |"Am" (A2  (3A)GA "E7"  (3BAB |"Am" (c2  (3c)Bc  (3dcd |"Am" (c2 c)B Ac |
"E" B4 E2 |"Am" A2 B2 c2 |"Dm" de/d/ c2 B2 |"Am" A3 c"E" B d|
"Am" c4 "E" E2 |"Am" (A2  (3A)GA "E7"  (3BAB |"Am" (c2  (3c)Bc  (3dcd |"Am" (c2 c)B Ac |
"E" B4 e2 |e2 _e2 e/_e/c |"E7" c2 B2 e^G |"Am" A3 c"E" e c|
fine"Am" A4 G2 |]"C" G2 c2 e2 |g4 e2 |ec Bc "G" gf |
"C" e4 G2 |G2 c2 e2 |g4 e2 |ec Bc "Cm" d_e |
"D" d6 |"Cm" g^f g^f _ed |"D7" ^f_e d4 |"E7" e_e ed cB |
d2 "Am" c4 |"Cm" g^f g^f _ed |"D7" ^f_e d4 |"E7" ed dc cB |
"Am" A4 |]





